flaticon/transport/bus-4.svg

<svg xmlns="http://www.w3.org/2000/svg" width="32" height="32" viewBox="0 0 24 24">
    <path d="M15.414062 4.613281L12.539062 4.613281C12.019531 4.613281 11.582031 5.050781 11.582031 5.570312L11.582031 9.246094C11.582031 9.765625 12.019531 10.203125 12.539062 10.203125L15.414062 10.203125C15.933594 10.203125 16.371094 9.765625 16.371094 9.246094L16.371094 5.570312C16.371094 5.050781 15.933594 4.613281 15.414062 4.613281zM15.574219 9.246094C15.574219 9.324219 15.496094 9.40625 15.414062 9.40625L12.539062 9.40625C12.460938 9.40625 12.378906 9.324219 12.378906 9.246094L12.378906 5.570312C12.378906 5.492188 12.460938 5.410156 12.539062 5.410156L15.414062 5.410156C15.496094 5.410156 15.574219 5.492188 15.574219 5.570312zM9.425781 4.613281L6.550781 4.613281C6.03125 4.613281 5.589844 5.050781 5.589844 5.570312L5.589844 9.246094C5.589844 9.765625 6.03125 10.203125 6.550781 10.203125L9.425781 10.203125C9.945312 10.203125 10.382812 9.765625 10.382812 9.246094L10.382812 5.570312C10.382812 5.050781 9.945312 4.613281 9.425781 4.613281zM9.585938 9.246094C9.585938 9.324219 9.503906 9.40625 9.425781 9.40625L6.550781 9.40625C6.46875 9.40625 6.390625 9.324219 6.390625 9.246094L6.390625 5.570312C6.390625 5.492188 6.46875 5.410156 6.550781 5.410156L9.425781 5.410156C9.503906 5.410156 9.585938 5.492188 9.585938 5.570312zM4.792969 16.191406C4.351562 16.191406 3.992188 16.550781 3.992188 16.992188 3.992188 17.429688 4.351562 17.789062 4.792969 17.789062 5.230469 17.789062 5.589844 17.429688 5.589844 16.992188 5.589844 16.550781 5.230469 16.191406 4.792969 16.191406zM4.792969 16.191406"/>
    <path d="M 24 8.207031 C 24 7.847656 23.878906 7.527344 23.640625 7.289062 L 20.167969 3.453125 C 19.886719 3.175781 19.527344 3.015625 19.167969 3.015625 L 1.199219 3.015625 C 0.558594 3.015625 0 3.535156 0 4.214844 L 0 16.191406 C 0 16.832031 0.519531 17.390625 1.199219 17.390625 L 2.023438 17.390625 C 2.214844 18.753906 3.371094 19.785156 4.792969 19.785156 C 6.214844 19.785156 7.367188 18.753906 7.558594 17.390625 L 14.414062 17.390625 L 14.414062 20.984375 L 24 20.984375 Z M 23 7.808594 C 23.121094 7.886719 23.160156 8.046875 23.160156 8.167969 L 23.160156 9.40625 L 18.371094 9.40625 L 18.371094 5.410156 L 20.804688 5.410156 Z M 0.796875 5.410156 L 3.515625 5.410156 C 3.554688 5.410156 3.59375 5.449219 3.59375 5.492188 L 3.59375 9.324219 C 3.59375 9.363281 3.554688 9.40625 3.515625 9.40625 L 0.796875 9.40625 Z M 4.792969 18.988281 C 3.675781 18.988281 2.796875 18.109375 2.796875 16.992188 C 2.796875 15.875 3.675781 14.996094 4.792969 14.996094 C 5.910156 14.996094 6.789062 15.875 6.789062 16.992188 C 6.789062 18.109375 5.910156 18.988281 4.792969 18.988281 Z M 14.375 11.402344 L 14.375 16.59375 L 7.558594 16.59375 C 7.367188 15.226562 6.214844 14.195312 4.792969 14.195312 C 4.785156 14.195312 4.777344 14.195312 4.773438 14.195312 C 4.765625 14.195312 4.757812 14.195312 4.753906 14.195312 C 3.355469 14.195312 2.195312 15.234375 1.996094 16.59375 L 1.199219 16.59375 C 1 16.59375 0.796875 16.433594 0.796875 16.191406 L 0.796875 13.398438 L 12.378906 13.398438 C 12.617188 13.398438 12.777344 13.238281 12.777344 13 C 12.777344 12.757812 12.617188 12.597656 12.378906 12.597656 L 0.796875 12.597656 L 0.796875 11.800781 L 10.78125 11.800781 C 11.023438 11.800781 11.179688 11.640625 11.179688 11.402344 C 11.179688 11.160156 11.023438 11 10.78125 11 L 0.796875 11 L 0.796875 10.203125 L 3.515625 10.203125 C 3.992188 10.203125 4.394531 9.804688 4.394531 9.324219 L 4.394531 5.492188 C 4.394531 5.011719 3.992188 4.613281 3.515625 4.613281 L 0.796875 4.613281 L 0.796875 4.214844 C 0.796875 4.011719 1 3.8125 1.199219 3.8125 L 19.167969 3.8125 C 19.289062 3.8125 19.449219 3.894531 19.566406 3.972656 L 20.140625 4.613281 L 18.25 4.613281 C 17.890625 4.613281 17.570312 4.933594 17.570312 5.292969 L 17.570312 9.523438 C 17.570312 9.882812 17.890625 10.203125 18.25 10.203125 L 23.160156 10.203125 L 23.160156 11.402344 Z M 23.203125 20.1875 L 19.566406 20.1875 L 19.566406 15.15625 L 21.285156 16.871094 L 21.84375 16.3125 L 19.167969 13.636719 L 16.492188 16.3125 L 17.050781 16.871094 L 18.769531 15.15625 L 18.769531 20.1875 L 15.214844 20.1875 L 15.214844 12.199219 L 23.203125 12.199219 Z M 23.203125 20.1875"/>
</svg>

<svg xmlns="http://www.w3.org/2000/svg" width="32" height="32" viewBox="0 0 24 24">
    <path d="M15.414 4.613H12.54a.969.969 0 0 0-.957.957v3.676c0 .52.438.957.957.957h2.875c.52 0 .957-.437.957-.957V5.57a.969.969 0 0 0-.957-.957zm.16 4.633c0 .078-.078.16-.16.16H12.54c-.078 0-.16-.082-.16-.16V5.57c0-.078.082-.16.16-.16h2.875c.082 0 .16.082.16.16zm0 0M9.426 4.613H6.55c-.52 0-.961.438-.961.957v3.676c0 .52.441.957.96.957h2.876c.52 0 .957-.437.957-.957V5.57a.969.969 0 0 0-.957-.957zm.16 4.633c0 .078-.082.16-.16.16H6.55c-.082 0-.16-.082-.16-.16V5.57c0-.078.078-.16.16-.16h2.875c.078 0 .16.082.16.16zm0 0M4.793 16.191c-.441 0-.8.36-.8.801 0 .438.359.797.8.797a.8.8 0 0 0 .797-.797c0-.441-.36-.8-.797-.8zm0 0"/>
    <path d="M24 8.207c0-.36-.121-.68-.36-.918l-3.472-3.836c-.281-.277-.64-.437-1-.437H1.199C.56 3.016 0 3.536 0 4.215V16.19c0 .641.52 1.2 1.2 1.2h.823a2.778 2.778 0 0 0 2.77 2.394 2.774 2.774 0 0 0 2.766-2.394h6.855v3.593H24zm-1-.398c.121.078.16.238.16.359v1.238h-4.789V5.41h2.434zM.797 5.41h2.719c.039 0 .078.04.078.082v3.832c0 .04-.04.082-.078.082H.796zm3.996 13.578a1.977 1.977 0 0 1-1.996-1.996c0-1.117.879-1.996 1.996-1.996s1.996.879 1.996 1.996a1.977 1.977 0 0 1-1.996 1.996zm9.582-7.586v5.192H7.559a2.774 2.774 0 0 0-2.766-2.399h-.04a2.796 2.796 0 0 0-2.757 2.399H1.2c-.199 0-.402-.16-.402-.403v-2.793h11.582c.238 0 .398-.16.398-.398 0-.242-.16-.402-.398-.402H.797V11.8h9.984c.242 0 .399-.16.399-.399 0-.242-.157-.402-.399-.402H.797v-.797h2.719a.888.888 0 0 0 .879-.879V5.492a.888.888 0 0 0-.88-.879H.798v-.398c0-.203.203-.402.402-.402h17.969c.121 0 .281.082.398.16l.575.64H18.25c-.36 0-.68.32-.68.68v4.23c0 .36.32.68.68.68h4.91v1.2zm8.828 8.786h-3.637v-5.032l1.72 1.715.558-.558-2.676-2.676-2.676 2.675.559.56 1.719-1.716v5.031h-3.555V12.2h7.988zm0 0"/>
</svg>
